!!!COM:	la Rue, Pierre de
!!!CDT:	~1452///-1518/11/20
!!!OPR:	Missa Ave Maria
!!!ONM:	2
!!!OTL:	Gloria
!!!AGN:	Mass; Gloria
!!!SCT:	Rue1004b
!!!SCA:	Rue1004b
!!!voices:	4
!!!voices-OPR:	4(-5)
**kern	**kern	**kern	**kern
*staff4	*staff3	*staff2	*staff1
*Ivox	*Ivox	*Ivox	*Ivox
*I"Bassus	*I"Tenor	*I"Contra	*I"Discantus
*I'B	*I'T	*I'C	*I'D
*>[A,B]	*>[A,B]	*>[A,B]	*>[A,B]
*>A	*>A	*>A	*>A
*clefF4	*clefGv2	*clefGv2	*clefG2
*k[]	*k[]	*k[]	*k[]
*M2/1	*M2/1	*M2/1	*M2/1
*met(C)	*met(C)	*met(C)	*met(C)
!!section: Et in terra pax
!!!OMD: Et in terra pax
=1-	=1-	=1-	=1-
0r	0r	1c	0r
.	.	1c	.
=2	=2	=2	=2
0r	0r	2G/	0r
.	.	2G/	.
.	.	1A	.
=3	=3	=3	=3
0r	0r	2r	1cc
.	.	2A/	.
.	.	2.c\	1cc
.	.	4d\	.
=4	=4	=4	=4
0r	0r	1e	2g/
.	.	.	2g/
.	.	[1f	1a
=5	=5	=5	=5
0r	0r	1f]	2r
.	.	.	2a/
.	.	1f	2.cc\
.	.	.	4dd\
=6	=6	=6	=6
0r	0r	2e\	1ee
.	.	1a	.
.	.	.	[1ff
.	.	[2d\	.
=7	=7	=7	=7
0r	0r	2d\]	1ff]
.	.	1a	.
.	.	.	1ff
.	.	2f\	.
=8	=8	=8	=8
0r	0r	2g\	1ee
.	.	1e	.
.	.	.	2ee\
.	.	2g\	2ee\
=9	=9	=9	=9
0r	0r	2.f\	2.dd\
.	.	4e\	4cc\
.	.	1f	1dd
=10	=10	=10	=10
0r	0c	2.e\	0ee
.	.	4d\	.
.	.	2c\	.
.	.	2A/	.
=11	=11	=11	=11
0r	2G/	1B	0r
.	2G/	.	.
.	1A	1A	.
=12	=12	=12	=12
0F	2r	0r	0r
.	2A/	.	.
.	2.c\	.	.
.	4d\	.	.
=13	=13	=13	=13
2C/	1e	0r	0r
2C/	.	.	.
1D	[1f	.	.
=14	=14	=14	=14
2r	1f]	0r	0r
2D\	.	.	.
2.F\	1f	.	.
4G\	.	.	.
=15	=15	=15	=15
2A\	0e	0r	0r
2G\	.	.	.
2A\	.	.	.
2E\	.	.	.
=16	=16	=16	=16
0F	2r	1a	0r
.	2A/	.	.
.	2.c\	2a\	.
.	.	2a\	.
.	4d\	.	.
=17	=17	=17	=17
0E	0e	2.g\	1ee
.	.	4f\	.
.	.	1g	2ee\
.	.	.	2ee\
=18	=18	=18	=18
0r	0f	1a	2dd\
.	.	.	2cc\
.	.	1d	4dd\
.	.	.	4cc\
.	.	.	4b\
.	.	.	4a/
=19	=19	=19	=19
1E	2e\	0r	1g
.	2e\	.	.
2E\	2e\	.	1r
2E\	2e\	.	.
=20	=20	=20	=20
2G\	2.d\	2r	2r
2A\	.	2f\	2a/
.	4c\	.	.
1F	1d	2f\	2a/
.	.	2f\	2a/
=21	=21	=21	=21
1E	1e	2.g\	2cc\
.	.	.	4b\
.	.	4f\	4g/
2r	2r	2g\	2b\
[2F\	2A/	2a\	2cc\
=22	=22	=22	=22
2F\]	2A/	2.d\	4dd\
.	.	.	4cc\
2F\	2A/	.	4b\
.	.	4e\	4a/
1E	2c\	1e	1g
.	4B\	.	.
.	4G/	.	.
=23	=23	=23	=23
2.E\	2B\	0r	0r
.	2c\	.	.
4E\	.	.	.
2D\	4d\	.	.
.	4c\	.	.
2D\	4B\	.	.
.	4A/	.	.
=24	=24	=24	=24
0E	0G	1e	2r
.	.	.	2cc\
.	.	2e\	2b\
.	.	2e\	[2ee\
=25	=25	=25	=25
0r	0r	1f	2ee\]
.	.	.	2dd\
.	.	2d\	2b\
.	.	2e\	[2cc\
=26	=26	=26	=26
0r	0r	1f	4cc\]
.	.	.	4b\
.	.	.	2.dd\
.	.	2.g\	.
.	.	.	4cc\
.	.	.	4b\
.	.	4f\	4a/
=27	=27	=27	=27
1E	2r	0e	0g
.	2c\	.	.
2E\	2B\	.	.
2E\	[2e\	.	.
=28	=28	=28	=28
1F	2e\]	0r	0r
.	2d\	.	.
2D\	2B\	.	.
2E\	[2c\	.	.
=29	=29	=29	=29
1F	4c\]	1r	1r
.	4B\	.	.
.	2.d\	.	.
2.G\	.	2r	2.b\
.	4c\	.	.
.	4B\	[2e\	.
4F\	4A/	.	4b\
=30	=30	=30	=30
1E	1G	4e\]	2b\
.	.	4e\	.
.	.	2e\	2b\
1r	1r	2e\	2b\
.	.	[2e\	4g/
.	.	.	4a/
=31	=31	=31	=31
1r	1r	4e\]	2b\
.	.	4d\	.
.	.	4e\	2.cc\
.	.	4f\	.
2.E\	2r	[1g	.
.	.	.	4b\
.	[2B\	.	4b\
4E\	.	.	4a/
=32	=32	=32	=32
2E\	4B\]	2g\]	1g
.	4B\	.	.
2E\	2B\	2e\	.
2E\	2B\	1e	1r
4E\	[2B\	.	.
4D\	.	.	.
=33	=33	=33	=33
4E\	2B\]	0r	0r
4F\	.	.	.
1G	2G/	.	.
.	2B\	.	.
2E\	[2c\	.	.
=34	=34	=34	=34
1F	4c\]	2r	0r
.	4B\	.	.
.	4B\	2f\	.
.	4A/	.	.
1E	1G	2g\	.
.	.	2e\	.
=35	=35	=35	=35
0r	0r	2f\	2r
.	.	2a\	2cc\
.	.	2.g\	2dd\
.	.	.	2b\
.	.	4f\	.
=36	=36	=36	=36
2r	2r	1e	2cc\
2A\	2c\	.	2.ee\
2B\	2d\	[1g	.
.	.	.	4b\
[2G\	4B\	.	4dd\
.	4c\	.	4cc\
=37	=37	=37	=37
4G\]	2d\	1g]	4b\
4F\	.	.	4a/
4E\	1e	.	1cc
4D\	.	.	.
2C/	.	2g\	.
[2G\	2e\	[2g\	4b\
.	.	.	4a/
=38	=38	=38	=38
4G\]	4d\	4g\]	4g/
4D\	4c\	4f\	4f/
2F\	4B\	2d\	1a
.	4A/	.	.
1E	1B	1e	.
.	.	.	2g#i/
=39	=39	=39	=39
2r	[0A	2r	0a
2F\	.	2c\	.
2F\	.	2d\	.
4D\	.	[2f\	.
4E\	.	.	.
=40	=40	=40	=40
4F\	0A]	2f\]	0r
4D\	.	.	.
4F\	.	4e\	.
4G\	.	4d\	.
2A\	.	2c\	.
[2D\	.	[2d\	.
=41	=41	=41	=41
4D\]	0r	2d\]	0r
4E\	.	.	.
4F\	.	2d\	.
4D\	.	.	.
2F\	.	2d\	.
[2G\	.	[2d\	.
=42	=42	=42	=42
2G\]	0r	4d\]	0r
.	.	4e\	.
2A\	.	4f\	.
.	.	4d\	.
1B-i	.	2f\	.
.	.	2g\	.
=43	=43	=43	=43
1A	2r	0a	0r
.	2A/	.	.
1r	2A/	.	.
.	[2A/	.	.
=44	=44	=44	=44
1F	4A/]	0r	0r
.	4B\	.	.
.	4c\	.	.
.	4A/	.	.
2F\	2c\	.	.
2F\	2d\	.	.
=45	=45	=45	=45
2E\	0e	0r	2r
1A	.	.	2a/
.	.	.	2a/
2A\	.	.	[2a/
=46	=46	=46	=46
2.F\	0f	0a	4a/]
.	.	.	4b\
.	.	.	4cc\
4G\	.	.	4a/
2A\	.	.	2cc\
2B\	.	.	2dd\
=47	=47	=47	=47
1c	4e\	1g	1ee
.	4f\	.	.
.	4g\	.	.
.	4e\	.	.
2A\	2f\	2c\	2r
2G\	[2e\	[2g\	[2ee\
=48	=48	=48	=48
1E	1e]	2g\]	4ee\]
.	.	.	4ff\
.	.	2g\	4gg\
.	.	.	4ee\
2r	2d\	2a\	2ff\
[2A\	4c\	[2a\	[2ee\
.	4B\	.	.
=49	=49	=49	=49
4A\]	2c\	2a\]	2ee\]
4c\	.	.	.
2B\	2d\	2g\	1dd
1A	1e	1a	.
.	.	.	2cc#i\
=50	=50	=50	=50
1D	[0d	2r	0dd
.	.	2f\	.
2r	.	2f\	.
2D\	.	[2f\	.
=51	=51	=51	=51
2D\	0d]	4f\]	2r
.	.	4e\	.
2.D\	.	2d\	1a
.	.	1f	.
4E\	.	.	.
4F\	.	.	[2a/
4G\	.	.	.
=52	=52	=52	=52
0A	0r	1e	4a/]
.	.	.	4b\
.	.	.	2cc\
.	.	4e\	2a/
.	.	4d\	.
.	.	4c\	[2cc\
.	.	4B\	.
=53	=53	=53	=53
2.F\	0r	2A/	4cc\]
.	.	.	4b\
.	.	1d	2.a/
4G\	.	.	.
1A	.	.	.
.	.	.	4g/
.	.	2c\	4f/
.	.	.	4e/
=54	=54	=54	=54
0D	2r	2.d\	0f
.	2d\	.	.
.	.	4c\	.
.	2d\	1A	.
.	[2d\	.	.
=55	=55	=55	=55
0r	4d\]	0r	1a
.	4e\	.	.
.	2f\	.	.
.	2d\	.	2f/
.	[2f\	.	2d/
=56	=56	=56	=56
1D	4f\]	0r	1.f
.	4e\	.	.
.	4d\	.	.
.	4c\	.	.
2F\	1d	.	.
2G\	.	.	2e/
=57	=57	=57	=57
0A	[0c	2r	0e
.	.	1a	.
.	.	2a\	.
=58	=58	=58	=58
0r	0c]	2g\	0r
.	.	2.e\	.
.	.	4f\	.
.	.	4g\	.
.	.	4e\	.
=59	=59	=59	=59
1A	0r	2f\	2r
.	.	2.e\	1ee
2G\	.	.	.
.	.	4f\	.
2E\	.	[2g\	2ee\
=60	=60	=60	=60
0G	0r	4g\]	2dd\
.	.	4f\	.
.	.	2d\	2.b\
.	.	2e\	.
.	.	.	4cc\
.	.	2d\	4dd\
.	.	.	4b\
=61	=61	=61	=61
2A\	1e	0r	2cc\
2G\	.	.	2.b\
2E\	2e\	.	.
.	.	.	4g/
2F\	2d\	.	2a/
=62	=62	=62	=62
1.G	2.B\	2.g\	1b
.	4c\	4a\	.
.	4d\	2b\	2r
.	4B\	.	.
2A\	2c\	[2a\	[2ee\
=63	=63	=63	=63
1E	1B	2a\]	2ee\]
.	.	2g\	2ee\
1r	1r	2a\	2cc\
.	.	2f\	[2dd\
=64	=64	=64	=64
1r	1r	2.g\	4dd\]
.	.	.	4cc\
.	.	.	4b\
.	.	4f\	4a/
1A	2r	4e\	2.cc\
.	.	4d\	.
.	[2e\	[2a\	.
.	.	.	4dd\
=65	=65	=65	=65
2E\	2e\]	2a\]	1b
2E\	2e\	2g\	.
2F\	2c\	2a\	2.a/
2D\	[2d\	2f\	.
.	.	.	4a/
=66	=66	=66	=66
2.G\	4d\]	2.g\	2b\
.	4c\	.	.
.	4B\	.	4b\
4F\	4A/	4a\	2cc\
2.A\	2.c\	2e\	.
.	.	.	4a/
.	.	2f\	[2a/
4D\	4d\	.	.
=67	=67	=67	=67
1E	1B	1e	2a/]
.	.	.	2g#i/
1AAl	1Al	1el	1al
!!LO:LB:i:g=z
=68||	=68||	=68||	=68||
*>B	*>B	*>B	*>B
*clefF4	*clefGv2	*clefGv2	*clefG2
*k[]	*k[]	*k[]	*k[]
*M2/1	*M2/1	*M2/1	*M2/1
*met(C2)	*met(C2)	*met(C2)	*met(C2)
!!section: Qui tollis
!!!OMD: Qui tollis
0r	0r	0r	0cc
=69.	=69.	=69.	=69.
0r	0r	0r	1g
.	.	.	1a
=70	=70	=70	=70
0r	0r	1r	1a
.	.	[1f	2r
.	.	.	[2a/
=71.	=71.	=71.	=71.
0r	0r	1f]	2a/]
.	.	.	2.cc\
.	.	1c	.
.	.	.	4dd\
.	.	.	2ee\
=72	=72	=72	=72
0r	0r	1d	1.ff
.	.	1d	.
.	.	.	4ee\
.	.	.	4dd\
=73.	=73.	=73.	=73.
0r	0r	2r	2ee\
.	.	2.d\	2dd\
.	.	.	[1ff
.	.	4e\	.
.	.	4f\	.
.	.	4g\	.
=74	=74	=74	=74
0r	0r	1a	2ff\]
.	.	.	2ee\
.	.	1a	1ee
=75.	=75.	=75.	=75.
0r	0r	1.b-i	2r
.	.	.	1dd
.	.	4a\	2b\
.	.	4g\	.
=76	=76	=76	=76
0r	0r	2a\	2cc\
.	.	2f\	2a/
.	.	2a\	2cc\
.	.	2g\	2b\
=77.	=77.	=77.	=77.
0r	0r	2e\	2g/
.	.	2g\	2b\
.	.	2f\	2a/
.	.	2d\	2f/
=78	=78	=78	=78
0r	0c	2f\	2a/
.	.	2e\	1g
.	.	2c\	.
.	.	2e\	[2cc\
=79.	=79.	=79.	=79.
0r	1G	1d	2cc\]
.	.	.	2b\
.	1A	1c	1cc
=80	=80	=80	=80
1r	1A	0c	0cc
[1F	2r	.	.
.	[2A/	.	.
=81.	=81.	=81.	=81.
1F]	2A/]	0r	0r
.	2.c\	.	.
1C	.	.	.
.	4d\	.	.
.	2e\	.	.
=82	=82	=82	=82
2D\	[0f	0r	0r
2.F\	.	.	.
4G\	.	.	.
2A\	.	.	.
=83.	=83.	=83.	=83.
2B-i\	0f]	0r	0r
2A\	.	.	.
2F\	.	.	.
2A\	.	.	.
=84	=84	=84	=84
2G\	2e\	0r	0r
2E\	1e	.	.
2G\	.	.	.
2F\	2d\	.	.
=85.	=85.	=85.	=85.
2E\	[0e	2r	0r
1A	.	2c\	.
.	.	2c\	.
2G\	.	[2B\	.
=86	=86	=86	=86
1A	0e]	2B\]	0r
.	.	1A	.
1E	.	.	.
.	.	2G#i/	.
=87.	=87.	=87.	=87.
1r	0r	0A	1r
[1A	.	.	[1cc
=88	=88	=88	=88
1A]	0e	0a	1cc]
1A	.	.	1cc
=89.	=89.	=89.	=89.
0A	1e	1a	1.cc
.	[1e	[1a	.
.	.	.	4b\
.	.	.	4a/
=90	=90	=90	=90
1A	1e]	1a]	2.cc\
.	.	.	4dd\
1A	1e	1a	1ee
=91.	=91.	=91.	=91.
1F	2d\	1a	2r
.	2c\	.	2a/
1F	1d	1f	2a/
.	.	.	2a/
=92	=92	=92	=92
1E	[0e	1g	2cc\
.	.	.	2b\
2.E\	.	2g\	4g/
.	.	.	4a/
.	.	[2e\	4b\
4F\	.	.	4cc\
=93.	=93.	=93.	=93.
2G\	0e_	2e\]	2b\
2A\	.	4d\	1a
.	.	4c\	.
1E	.	1B	.
.	.	.	2g#i/
=94	=94	=94	=94
2r	0e_	1A	1a
2A\	.	.	.
2A\	.	2r	1r
[2c\	.	2A/	.
=95.	=95.	=95.	=95.
4c\]	0e]	2A/	1r
4B\	.	.	.
1A	.	1c	.
.	.	.	2r
4G\	.	4B\	2ee\
4F\	.	4A/	.
=96	=96	=96	=96
0E	0r	2c\	2ee\
.	.	1B	2.gg\
.	.	.	4ff\
.	.	2e\	[2ee\
=97.	=97.	=97.	=97.
1r	0r	2e\	2ee\]
.	.	2.g\	4dd\
.	.	.	4cc\
2r	.	.	4b\
.	.	4f\	2.a/
[2A\	.	[2e\	.
=98	=98	=98	=98
2A\]	0r	2e\]	2cc\
2A\	.	4d\	4b\
.	.	4c\	4a/
[1E	.	2e\	[1g
.	.	4d\	.
.	.	4c\	.
=99.	=99.	=99.	=99.
1E]	0r	1B	1g]
2r	.	1A	1r
2A\	.	.	.
=100	=100	=100	=100
2A\	[0e	2r	0r
2.c\	.	2A/	.
.	.	2A/	.
4B\	.	.	.
[2A\	.	[2c\	.
=101.	=101.	=101.	=101.
2A\]	0e_	2c\]	2r
4G\	.	4B\	2ee\
4F\	.	4A/	.
2.E\	.	2c\	2ee\
.	.	[2B\	[2gg\
4F\	.	.	.
=102	=102	=102	=102
2G\	0e]	2B\]	4gg\]
.	.	.	4ff\
2A\	.	2e\	1ee
1E	.	2e\	.
.	.	[2g\	4dd\
.	.	.	4cc\
=103.	=103.	=103.	=103.
0r	1e	2g\]	4b\
.	.	.	4a/
.	.	2e\	4b\
.	.	.	4cc\
.	2d\	2f\	2dd\
.	2c\	2e\	[2ee\
=104	=104	=104	=104
1r	1d	2.f\	2ee\]
.	.	.	1dd
.	.	4d\	.
1A	[1A	1e	.
.	.	.	2cc#i\
=105.	=105.	=105.	=105.
0D	1A]	1d	0dd
.	1d	1f	.
=106	=106	=106	=106
1G	2d\	2g\	1b
.	1d	1g	.
2G\	.	.	2b\
[2G\	[2d\	[2g\	[2b\
=107.	=107.	=107.	=107.
2G\]	2d\]	2g\]	2b\]
2G\	2B\	2g\	2b\
4A\	4c\	2e\	2a/
4G\	4B\	.	.
4A\	4c\	[2a\	[2cc\
4B\	4d\	.	.
=108	=108	=108	=108
2c\	2e\	4a\]	2cc\]
.	.	4g\	.
2G\	1d	1g	1b
1A	.	.	.
.	2c\	2f#i\	2a/
=109.	=109.	=109.	=109.
0G	[0d	1g	0b
.	.	2r	.
.	.	2d\	.
=110	=110	=110	=110
1G	1d]	1.g	2r
.	.	.	2b\
2G\	2r	.	[1dd
[2G\	2B\	2g\	.
=111.	=111.	=111.	=111.
4G\]	2d\	2g\	2dd\]
4A\	.	.	.
4B\	2d\	2g\	2dd\
4G\	.	.	.
2c\	[1e	1c	2cc\
2A\	.	.	2cc\
=112	=112	=112	=112
0G	2e\]	2r	1b
.	2d\	1g	.
.	[1d	.	2r
.	.	4f\	2b\
.	.	4e\	.
=113.	=113.	=113.	=113.
2r	2d\]	2d\	2b\
2G\	2d\	2G/	2.dd\
1G	2d\	[1g	.
.	.	.	4cc\
.	2d\	.	4b\
.	.	.	4a/
=114	=114	=114	=114
1E	2e\	2g\]	2g/
.	2.g\	4f\	2a/
.	.	4e\	.
1G	.	2d\	1b
.	4f\	.	.
.	4e\	2G/	.
.	4d\	.	.
=115.	=115.	=115.	=115.
4G\	2e\	1g	2r
4F\	.	.	.
4E\	1d	.	1b
4D\	.	.	.
1E	.	1g	.
.	2c#i\	.	2g/
=116	=116	=116	=116
0D	[0d	0f	2b\
.	.	.	1a
.	.	.	2a/
=117.	=117.	=117.	=117.
2r	0d]	0r	2b\
2G\	.	.	2.dd\
2.B\	.	.	.
.	.	.	4cc\
.	.	.	4b\
4c\	.	.	4a/
=118	=118	=118	=118
4d\	1r	0r	2b\
4c\	.	.	.
4B\	.	.	1a
4A\	.	.	.
1B	1d	.	.
.	.	.	2g#i/
=119.	=119.	=119.	=119.
2A\	2c\	1r	1a
2F\	2A/	.	.
1E	4B\	1g	1r
.	4A/	.	.
.	4B\	.	.
.	4c\	.	.
=120	=120	=120	=120
1D	2.d\	2f\	0r
.	.	2d\	.
.	4c\	.	.
1r	4A/	4e\	.
.	4B\	4d\	.
.	[2c\	4e\	.
.	.	4f\	.
=121.	=121.	=121.	=121.
0r	2c\]	2g\	1r
.	4B\	1a	.
.	4A/	.	.
.	1B	.	1dd
.	.	2g#i\	.
=122	=122	=122	=122
1A	1A	1a	2cc\
.	.	.	2cc\
2G\	1r	1r	2b\
2G\	.	.	[2dd\
=123.	=123.	=123.	=123.
2.D\	1d	1r	4dd\]
.	.	.	4cc\
.	.	.	2.a/
4E\	.	.	.
4F\	2c\	1a	.
4G\	.	.	4b\
4A\	2c\	.	4cc\
4F\	.	.	4a/
=124	=124	=124	=124
2G\	2B\	2g\	1b
2G\	2.d\	2g\	.
1D	.	4f\	1a
.	4c\	4g\	.
.	[2A/	4a\	.
.	.	4g\	.
=125.	=125.	=125.	=125.
0r	4A/]	2e\	1r
.	4B\	.	.
.	4c\	1a	.
.	4A/	.	.
.	1B	.	1dd
.	.	2g#i\	.
=126	=126	=126	=126
1A	1A	1a	2cc\
.	.	.	2a/
2G\	1r	1r	4b\
.	.	.	4a/
2G\	.	.	4b\
.	.	.	4cc\
=127.	=127.	=127.	=127.
2.D\	1d	1r	2.dd\
4E\	.	.	4cc\
4F\	2c\	1a	2a/
4G\	.	.	.
4A\	2A/	.	2cc\
4F\	.	.	.
=128	=128	=128	=128
1G	2B\	2g\	1b
.	2.d\	2g\	.
2D\	.	2f\	2a/
.	4c\	.	.
[2A\	[2A/	4e\	[2cc\
.	.	4c\	.
=129.	=129.	=129.	=129.
4A\]	4A/]	2e\	4cc\]
4G\	4B\	.	4b\
2F\	4c\	2f\	2a/
.	4A/	.	.
1E	1B	2.g\	2g/
.	.	.	2b\
.	.	4f\	.
=130	=130	=130	=130
0r	2A/	1a	2cc\
.	2.c\	.	2.ee\
.	.	1e	.
.	4B\	.	4dd\
.	2A/	.	2cc\
=131.	=131.	=131.	=131.
2r	2G/	2r	2b\
2G\	2B\	2g\	2dd\
2A\	2c\	2e\	2cc\
2G\	[2e\	[2g\	[2b\
=132	=132	=132	=132
2E\	4e\]	2g\]	2b\]
.	4d\	.	.
2F\	2c\	2f\	2a/
2G\	2B\	2.d\	2.dd\
2F\	2A/	.	.
.	.	4e\	4cc\
=133.	=133.	=133.	=133.
2D\	4d\	2f\	4b\
.	4c\	.	4a/
2F\	4B\	2d\	1a
.	4A/	.	.
1E	1B	1e	.
.	.	.	2g#i/
=134	=134	=134	=134
0AAl	0Al	0el	0al
==	==	==	==
*-	*-	*-	*-
!!!RDF**kern: l=long note in original notation
!!!RDF**kern: i=editorial accidental
!!!ENC:	Chris Gage 12-02-2012
!!!END:	2013/05/24/
!!!EED:	Jesse Rodin
!!!EEV:	2013/07/19/
!!!ONB:	Translated from MusicXML and edited on 2013/07/19/ by Craig Sapp
!!muse2ps: T^@{OPR}^u^@{ONM}{. }@{OTL}^C^@{COM}^i2I150v85,85,85,150Q16
